Newaita-dark/actions/22/kdeconnect.svg

<svg height="22" viewBox="0 0 22 22" width="22" xmlns="http://www.w3.org/2000/svg"><path d="m5.457031 1.992188c-1.007812 0-1.820312.808593-1.820312 1.816406v14.554687c0 1.007813.8125 1.820313 1.820312 1.820313h10.914063c1.007812 0 1.820312-.8125 1.820312-1.820313v-14.554687c0-1.007813-.8125-1.816406-1.820312-1.816406zm.910157 1.816406h9.097656c.503906 0 .90625.40625.90625.910156v10.917969c0 .503906-.402344.90625-.90625.90625h-9.097656c-.503907 0-.910157-.402344-.910157-.90625v-10.917969c0-.503906.40625-.910156.910157-.910156zm2.730468 14.101562h3.636719c.25 0 .453125.203125.453125.453125 0 .253907-.203125.457031-.453125.457031h-3.636719c-.253906 0-.457031-.203124-.457031-.457031 0-.25.203125-.453125.457031-.453125zm0 0" fill="#e0e0e0"/></svg>

<svg xmlns="http://www.w3.org/2000/svg" xmlns:xlink="http://www.w3.org/1999/xlink" width="22px" height="22px" viewBox="0 0 22 22" version="1.1">
<g id="surface1">
     <defs>
  <style id="current-color-scheme" type="text/css">
   .ColorScheme-Text { color:#eeeeee; } .ColorScheme-Highlight { color:#424242; }
  </style>
 </defs>
<path style="fill:currentColor" class="ColorScheme-Text" d="M 5.457031 1.992188 C 4.449219 1.992188 3.636719 2.800781 3.636719 3.808594 L 3.636719 18.363281 C 3.636719 19.371094 4.449219 20.183594 5.457031 20.183594 L 16.371094 20.183594 C 17.378906 20.183594 18.191406 19.371094 18.191406 18.363281 L 18.191406 3.808594 C 18.191406 2.800781 17.378906 1.992188 16.371094 1.992188 Z M 6.367188 3.808594 L 15.464844 3.808594 C 15.96875 3.808594 16.371094 4.214844 16.371094 4.71875 L 16.371094 15.636719 C 16.371094 16.140625 15.96875 16.542969 15.464844 16.542969 L 6.367188 16.542969 C 5.863281 16.542969 5.457031 16.140625 5.457031 15.636719 L 5.457031 4.71875 C 5.457031 4.214844 5.863281 3.808594 6.367188 3.808594 Z M 9.097656 17.910156 L 12.734375 17.910156 C 12.984375 17.910156 13.1875 18.113281 13.1875 18.363281 C 13.1875 18.617188 12.984375 18.820312 12.734375 18.820312 L 9.097656 18.820312 C 8.84375 18.820312 8.640625 18.617188 8.640625 18.363281 C 8.640625 18.113281 8.84375 17.910156 9.097656 17.910156 Z M 9.097656 17.910156 "/>
</g>
</svg>
